public/feat-speed.svg

<svg width="93" height="125" viewBox="0 0 93 125" fill="none" xmlns="http://www.w3.org/2000/svg">
<g clip-path="url(#clip0_9_94419)">
<g clip-path="url(#clip1_9_94419)">
<path d="M30.8214 103.993C29.2543 103.993 27.6839 103.605 26.5129 102.929L13.9384 95.6694C12.9558 95.1024 12.5558 94.508 12.5057 94.1308L12.5032 94.1021C12.5018 94.0858 12.5009 94.056 12.5046 94.0068L12.509 93.9496V93.8922C12.5061 80.5908 12.5023 55.5302 12.5083 54.0433C12.5244 53.9087 12.589 53.7762 12.7054 53.6386C16.7957 48.7933 22.1851 44.4225 28.7248 40.6467C35.3073 36.8462 42.9548 33.7065 51.455 31.3148C52.0775 31.1395 52.8005 31.0469 53.546 31.0469C55.1135 31.0469 56.6838 31.4345 57.8543 32.1103L70.4289 39.3703C71.4571 39.9638 71.8907 40.6307 71.8644 41.0285L71.7386 42.9273L71.8685 42.905V79.4248L71.6671 79.469L71.8584 80.8434C71.8766 80.9737 71.8706 81.155 71.662 81.402C67.5726 86.2461 62.1831 90.6168 55.6429 94.3926C49.0605 98.1929 41.4127 101.333 32.9122 103.725C32.2898 103.9 31.5668 103.993 30.8214 103.993Z" fill="white"/>
<path d="M53.5461 32.5469C52.936 32.5469 52.3536 32.6201 51.8613 32.7587C43.4812 35.1166 35.9493 38.2076 29.4748 41.9458C23.1692 45.5864 17.9673 49.7824 14.0075 54.4225C14.0027 57.8958 14.0062 81.1957 14.009 93.8486C14.1065 93.9619 14.3164 94.1557 14.6884 94.3704L27.2628 101.63C28.1986 102.17 29.529 102.493 30.8214 102.493C31.4313 102.493 32.0137 102.42 32.5059 102.281C40.8864 99.9227 48.4185 96.8316 54.8929 93.0936C61.1775 89.4653 66.366 85.2851 70.3192 80.6657L69.9903 78.3025L70.3685 78.2193V44.6844L70.116 44.7277L70.3508 41.1834C70.2513 41.0695 70.0429 40.8794 69.6789 40.6693L57.1043 33.4094C56.1689 32.8693 54.8388 32.5469 53.5461 32.5469ZM53.5461 29.5469C55.3267 29.5469 57.1809 29.9894 58.6044 30.8114L71.1789 38.0713C72.6656 38.9293 73.4319 40.0588 73.3611 41.1276L73.3685 41.1264V80.6312L73.3441 80.6366C73.4279 81.2389 73.2591 81.8357 72.8081 82.3697C64.3654 92.3707 50.6402 100.294 33.3186 105.169C30.9542 105.835 27.8824 105.452 25.7631 104.228L13.1884 96.9685C11.857 96.2001 11.1014 95.2139 11.0097 94.2484L11.009 94.2335C10.9989 94.1194 11.0003 94.006 11.009 93.8925C11.009 93.8925 11.0003 54.0689 11.009 53.9555V53.9136L11.0138 53.9122C11.0555 53.4801 11.2318 53.0581 11.56 52.67C20.0027 42.6689 33.7271 34.7447 51.0487 29.8708C51.8245 29.6524 52.6765 29.5469 53.5461 29.5469Z" fill="#005BEA"/>
<path d="M51.0475 29.8698C53.5952 29.2271 56.2913 29.5628 58.6035 30.8108L71.1775 38.0708C73.2965 39.2938 73.9585 41.0708 72.8065 42.4328C64.3635 52.4328 50.6385 60.3568 33.3165 65.2328C30.7689 65.8759 28.0728 65.5405 25.7605 64.2928L13.1855 57.0328C11.0665 55.8098 10.4045 54.0328 11.5575 52.6708C20.0035 42.6678 33.7285 34.7448 51.0475 29.8698Z" fill="#005BEA"/>
<path d="M27.4037 59.9464C26.1401 59.9464 24.9282 59.4445 24.0346 58.5511C23.1411 57.6577 22.6389 56.446 22.6387 55.1824V49.0964C22.6492 43.0321 24.2506 37.0767 27.2831 31.825C30.3155 26.5733 34.6727 22.2091 39.9196 19.1684C42.3409 17.751 45.096 17.0039 47.9017 17.0039C50.7073 17.0039 53.4624 17.751 55.8837 19.1684C58.321 20.5562 60.3451 22.5677 61.7478 24.9965C63.1506 27.4253 63.8816 30.1837 63.8657 32.9884V36.8814C63.8654 38.145 63.3632 39.3567 62.4697 40.2501C61.5761 41.1435 60.3642 41.6454 59.1006 41.6454C57.8372 41.6454 56.6254 41.1435 55.732 40.25C54.8386 39.3566 54.3367 38.1449 54.3367 36.8814V32.9884C54.3434 31.8575 54.049 30.7452 53.4836 29.7658C52.9182 28.7864 52.1023 27.9751 51.1197 27.4154C50.1436 26.8441 49.0331 26.5431 47.9022 26.5431C46.7712 26.5431 45.6607 26.8441 44.6847 27.4154C40.8835 29.6177 37.727 32.779 35.5304 36.5835C33.3339 40.388 32.1743 44.7023 32.1677 49.0954V55.1814C32.1678 55.8071 32.0447 56.4267 31.8053 57.0048C31.5659 57.5829 31.2151 58.1082 30.7727 58.5507C30.3303 58.9932 29.805 59.3442 29.227 59.5836C28.6489 59.8231 28.0294 59.9464 27.4037 59.9464Z" fill="#CEE7FD"/>
<path d="M83.6774 57.5441L83.6534 57.5311C83.5134 57.4425 83.3707 57.3601 83.2254 57.2841L79.5024 55.1381C77.3294 53.8381 74.4774 53.9291 71.3524 55.7381C64.5444 59.6691 59.0254 70.2131 59.0254 79.2901C59.0254 84.2961 60.7054 87.8051 63.3524 89.2901L67.3224 91.5731C69.4844 92.8251 72.3054 92.7131 75.3914 90.9311C82.1994 87.0001 87.7184 76.4561 87.7184 67.3791C87.7164 62.5561 86.1624 59.1181 83.6774 57.5441Z" fill="#005BEA"/>
<path d="M87.7165 67.3811C87.7165 76.4581 82.1975 87.0031 75.3895 90.9331C68.5815 94.8631 63.0625 90.6911 63.0625 81.6141C63.0625 72.5371 68.5815 61.9921 75.3895 58.0611C82.1975 54.1301 87.7165 58.3051 87.7165 67.3811Z" fill="#005BEA"/>
<path d="M80.2836 57.9709C81.1219 57.969 81.9474 58.1764 82.6852 58.5744C83.4231 58.9724 84.0498 59.5483 84.5086 60.2499C85.8235 62.3889 86.4588 64.8764 86.3306 67.3839C86.2266 71.9503 85.0427 76.4272 82.8756 80.4479C80.6676 84.6669 77.7616 87.9649 74.6936 89.7369C73.431 90.5285 71.9827 90.9747 70.4936 91.0309C69.6551 91.033 68.8294 90.8256 68.0914 90.4276C67.3535 90.0296 66.7265 89.4536 66.2676 88.7519C64.9526 86.613 64.3173 84.1255 64.4456 81.6179C64.5488 77.0517 65.7321 72.5748 67.8986 68.5539C70.1066 64.3349 73.0126 61.0359 76.0796 59.2649C77.3422 58.4735 78.7905 58.0273 80.2796 57.9709M80.2796 56.5859C78.5468 56.6412 76.859 57.1513 75.3856 58.0649C68.5786 61.9959 63.0586 72.5399 63.0586 81.6179C63.0586 88.3769 66.1186 92.4179 70.4916 92.4179C72.2244 92.3629 73.9123 91.8528 75.3856 90.9389C82.1936 87.0079 87.7126 76.4639 87.7126 67.3869C87.7126 60.6279 84.6536 56.5859 80.2796 56.5859Z" fill="#005BEA"/>
<path d="M73.352 86.2147C73.0616 86.4269 72.7133 86.5454 72.3538 86.5544C71.9942 86.5633 71.6405 86.4622 71.34 86.2647L66.22 82.3937C65.109 81.5537 65.109 79.1527 66.22 77.0297C67.331 74.9067 69.132 73.8677 70.243 74.7077L73.352 77.0577L79.922 64.5047C81.033 62.3817 82.834 61.3417 83.945 62.1817C85.056 63.0217 85.056 65.4237 83.945 67.5457L75.364 83.9457C74.9145 84.8725 74.2184 85.6576 73.352 86.2147Z" fill="white"/>
</g>
</g>
<defs>
<clipPath id="clip0_9_94419">
<rect width="93" height="125" fill="white"/>
</clipPath>
<clipPath id="clip1_9_94419">
<rect width="77" height="125" fill="white" transform="translate(11 -1)"/>
</clipPath>
</defs>
</svg>

<svg xmlns="http://www.w3.org/2000/svg" width="93" height="125" fill="none" viewBox="0 0 93 125"><g clip-path="url(#a)"><g clip-path="url(#b)"><path fill="#fff" d="M30.821 103.993c-1.567 0-3.137-.388-4.308-1.064l-12.575-7.26c-.982-.567-1.382-1.161-1.432-1.538l-.003-.029a1 1 0 0 1 .002-.095l.004-.057v-.058c-.003-13.301-.007-38.362 0-39.849a.77.77 0 0 1 .196-.404c4.09-4.846 9.48-9.217 16.02-12.992 6.582-3.8 14.23-6.94 22.73-9.332a7.8 7.8 0 0 1 2.091-.268c1.568 0 3.138.387 4.308 1.063l12.575 7.26c1.028.594 1.462 1.26 1.435 1.659l-.125 1.898.13-.022v36.52l-.202.044.191 1.374c.019.13.013.312-.196.559-4.09 4.844-9.479 9.215-16.02 12.99-6.582 3.8-14.23 6.941-22.73 9.333a7.9 7.9 0 0 1-2.09.268"/><path fill="#005bea" d="M53.546 32.547a6.3 6.3 0 0 0-1.685.212c-8.38 2.358-15.912 5.449-22.386 9.187-6.306 3.64-11.508 7.836-15.468 12.477-.004 3.473 0 26.773.002 39.426.098.113.307.307.68.521l12.574 7.26c.936.54 2.266.863 3.558.863.61 0 1.193-.073 1.685-.212 8.38-2.358 15.913-5.45 22.387-9.187 6.285-3.629 11.473-7.809 15.426-12.428l-.329-2.364.379-.083V44.684l-.253.044.235-3.545c-.1-.114-.308-.304-.672-.514l-12.575-7.26c-.935-.54-2.265-.862-3.558-.862m0-3c1.78 0 3.635.442 5.058 1.264l12.575 7.26c1.487.858 2.253 1.988 2.182 3.057l.007-.002v39.505l-.024.006c.084.602-.085 1.199-.536 1.733-8.443 10-22.168 17.924-39.49 22.799-2.364.666-5.436.283-7.555-.941l-12.575-7.26c-1.331-.768-2.087-1.754-2.178-2.72l-.001-.014a2 2 0 0 1 0-.341s-.009-39.824 0-39.937v-.042l.005-.002c.042-.432.218-.854.546-1.242 8.443-10.001 22.167-17.925 39.489-22.8a9.3 9.3 0 0 1 2.497-.323"/><path fill="#005bea" d="M51.048 29.87a10.5 10.5 0 0 1 7.555.94l12.574 7.26c2.12 1.224 2.781 3 1.63 4.363-8.443 10-22.168 17.924-39.49 22.8a10.5 10.5 0 0 1-7.556-.94l-12.575-7.26c-2.12-1.223-2.781-3-1.629-4.362 8.446-10.003 22.172-17.926 39.49-22.801"/><path fill="#cee7fd" d="M27.404 59.946a4.765 4.765 0 0 1-4.765-4.764v-6.086a34.66 34.66 0 0 1 17.28-29.928 15.8 15.8 0 0 1 15.965 0 15.8 15.8 0 0 1 7.982 13.82v3.893a4.765 4.765 0 0 1-9.53 0v-3.893a6.37 6.37 0 0 0-3.216-5.573 6.37 6.37 0 0 0-6.435 0 25.1 25.1 0 0 0-12.517 21.68v6.086a4.764 4.764 0 0 1-4.764 4.765"/><path fill="#005bea" d="m83.677 57.544-.024-.013a6 6 0 0 0-.428-.247l-3.723-2.146c-2.173-1.3-5.025-1.209-8.15.6-6.808 3.931-12.327 14.475-12.327 23.552 0 5.006 1.68 8.515 4.327 10l3.97 2.283c2.162 1.252 4.983 1.14 8.07-.642 6.807-3.93 12.326-14.475 12.326-23.552-.002-4.823-1.556-8.26-4.04-9.835"/><path fill="#005bea" d="M87.717 67.381c0 9.077-5.52 19.622-12.327 23.552s-12.327-.242-12.327-9.319 5.519-19.622 12.326-23.553c6.809-3.93 12.328.244 12.328 9.32"/><path fill="#005bea" d="M80.284 57.97a5.03 5.03 0 0 1 4.225 2.28 12.4 12.4 0 0 1 1.822 7.134 28.9 28.9 0 0 1-3.455 13.064c-2.208 4.219-5.114 7.517-8.182 9.289a8.5 8.5 0 0 1-4.2 1.294 5.03 5.03 0 0 1-4.226-2.28 12.4 12.4 0 0 1-1.822-7.133 28.9 28.9 0 0 1 3.453-13.064c2.208-4.22 5.114-7.518 8.18-9.29a8.5 8.5 0 0 1 4.2-1.293m0-1.385a9.9 9.9 0 0 0-4.893 1.479c-6.807 3.93-12.327 14.475-12.327 23.553 0 6.759 3.06 10.8 7.433 10.8a9.9 9.9 0 0 0 4.894-1.48c6.808-3.93 12.327-14.474 12.327-23.551 0-6.76-3.06-10.801-7.433-10.801"/><path fill="#fff" d="M73.352 86.215a1.77 1.77 0 0 1-2.012.05l-5.12-3.871c-1.111-.84-1.111-3.241 0-5.364s2.912-3.162 4.023-2.322l3.109 2.35 6.57-12.553c1.111-2.123 2.912-3.163 4.023-2.323s1.111 3.242 0 5.364l-8.581 16.4a5.6 5.6 0 0 1-2.012 2.269"/></g></g><defs><clipPath id="a"><path fill="#fff" d="M0 0h93v125H0z"/></clipPath><clipPath id="b"><path fill="#fff" d="M11-1h77v125H11z"/></clipPath></defs></svg>
